X:1
T:Extravaganza
T:By: Jules Gaia Arranged by: CheeezAir 
%%score { 1 | 2 }
L:1/8
M:4/4
K:D
V:1 treble nm="Piano" snm="Pno."
V:2 bass 
V:1
 z8 | z8 | z8 | z8 | .B,.C.D.E F3/2 F2 z/ | .E.D.E.D =F3/2.E.D z/ | .B,.C.D.E F3/4B3/4 F2 z/ | %7
 .E.D.E.D =F3/2 ^F2 z/ | .B,.C.D.E F3/2 F2 z/ | .E.D.E.D =F3/2.E.D z/ | .B,.C.D.E F3/4B3/4 F2 z/ | %11
 .E.D.E.D =F3/2 ^F2 (3A/4^A/4B/4 | .B.F .^A.F/=A7/8A7/8 z/4 .B/ .A.F | GE EG/FFE/ F^A | %14
 .B.F .^A.F/=A7/8A7/8 z/4 .B/ .A.F | GE EG/FFE/ F/E/D/C/ | .B,.C.D.E F3/4B3/4 F2 z/ | %17
 .E.D.E.D =F3/2.E.D z/ | .B,.C.D.E F3/4B3/4 F2 z/ | .E.D.E.D =F3/2 ^F2 z/ | %20
 z dBF [FB]3/2[FB]3/2 z | z GGE [CF]3/2[CF]3/2 z | z dBF [FB]3/2[FB]3/2 z | %23
 z GGE [CF]>[CF] F/E/D/C/ | .B,.C.D.E F3/2 F2 z/ | .E.D.E.D =F3/2.E.D z/ | %26
 .B,.C.D.E F3/4B3/4 F2 z/ | .E.D.E.D =F3/2 ^F2 z/ | z8 |] %29
V:2
 .B,,.[D,F,].B,,.[D,F,] .A,,.[C,E,].A,,.[C,E,] | %1
 .G,,.[B,,D,].G,,.[B,,D,] .F,,.[^A,,C,].F,,.[A,,C,] | %2
 .B,,.[D,F,].B,,.[D,F,] .A,,.[C,E,].A,,.[C,E,] | %3
 .G,,.[B,,D,].G,,.[B,,D,] .F,,.[^A,,C,].F,,.[A,,C,] | %4
 .B,,.[D,F,].B,,.[D,F,] .A,,.[C,E,].A,,.[C,E,] | %5
 .G,,.[B,,D,].G,,.[B,,D,] .F,,.[^A,,C,].F,,.[A,,C,] | %6
 .B,,.[D,F,].B,,.[D,F,] .A,,.[C,E,].A,,.[C,E,] | %7
 .G,,.[B,,D,].G,,.[B,,D,] .F,,.[^A,,C,].F,,.[A,,C,] | %8
 .B,,.[D,F,].B,,.[D,F,] .A,,.[C,E,].A,,.[C,E,] | %9
 .G,,.[B,,D,].G,,.[B,,D,] .F,,.[^A,,C,].F,,.[A,,C,] | %10
 .B,,.[D,F,].B,,.[D,F,] .A,,.[C,E,].A,,.[C,E,] | %11
 .G,,.[B,,D,].G,,.[B,,D,] .F,,.[^A,,C,].F,,.[A,,C,] | %12
 .B,,.[D,F,].B,,.[D,F,] .A,,.[C,E,].A,,.[C,E,] | %13
 .G,,.[B,,D,].G,,.[B,,D,] .F,,.[^A,,C,].F,,.[A,,C,] | %14
 .B,,.[D,F,].B,,.[D,F,] .A,,.[C,E,].A,,.[C,E,] | %15
 .G,,.[B,,D,].G,,.[B,,D,] .F,,.[^A,,C,].F,,.[A,,C,] | %16
 .B,,.[D,F,].B,,.[D,F,] .A,,.[C,E,].A,,.[C,E,] | %17
 .G,,.[B,,D,].G,,.[B,,D,] .F,,.[^A,,C,].F,,.[A,,C,] | %18
 .B,,.[D,F,].B,,.[D,F,] .A,,.[C,E,].A,,.[C,E,] | %19
 .G,,.[B,,D,].G,,.[B,,D,] .F,,.[^A,,C,].F,,.[A,,C,] | %20
 .B,,.[D,F,].B,,.[D,F,] .A,,.[C,E,].A,,.[C,E,] | %21
 .G,,.[B,,D,].G,,.[B,,D,] .F,,.[^A,,C,].F,,.[A,,C,] | %22
 .B,,.[D,F,].B,,.[D,F,] .A,,.[C,E,].A,,.[C,E,] | %23
 .G,,.[B,,D,].G,,.[B,,D,] .F,,.[^A,,C,].F,,.[A,,C,] | %24
 .B,,.[D,F,].B,,.[D,F,] .A,,.[C,E,].A,,.[C,E,] | %25
 .G,,.[B,,D,].G,,.[B,,D,] .F,,.[^A,,C,].F,,.[A,,C,] | %26
 .B,,.[D,F,].B,,.[D,F,] .A,,.[C,E,].A,,.[C,E,] | %27
 .G,,.[B,,D,].G,,.[B,,D,] .F,,.[^A,,C,].F,,.[A,,C,] | B,,8 |] %29

